X:1
T:Your State's Name Here
M:3/4
L:1/4
K:C
 z2 G| G C E| D2 C| c F A| G2 c/2c/2| c F A| G F E| G F E| D2 B,| C C E|\
 G2 G| A B A| G2 c/2c/2| c B A| G3| E F D| C3| z2 G| G C E| D2 C| c/2c/2 F A|\
 G2 c| c F A| G F E| G F E| D2 B,| C C E| G2 G| A B A| G2c/2-c/2| c B A|\
 G c E| E F3/2 D/2| C3| z2 c| B D E| F B3/2 A/2| G D ^D| E2 c| B D E|\
 F B A| G D ^D| E2 E/2D/2| D C E| G2 G/2G/2| A2 B/2A/2| G2 c/2c/2|\
 c2 B/2A/2| G/2 c3/2 E| E F D| C2 z|
